X:1
M:6/8
K:D
A|:DED FAB|=cBA -AdA|DED FAB|=cAG -G2A|DED FAB|
dce edc|Bdd edc|d3 -d2:|